X:1
T:Title
%%score { 1 | 2 }
L:1/8
M:4/4
K:G
V:1 treble nm="Grand Piano"
V:2 treble 
V:1
 z4 z2[Q:1/4=92] GA | B B2 _B =B d2 B | c2 B2 [FA]2 [FA][FB] | [Fc] [Fc]2 [=FB] [^Fc] [Fe]2 [Fc] | %4
[M:3/4] [Fd]2 [Ac]2 B2 |[M:1/4] GA |[M:4/4] B B2 _B =B d2 B | c2 B2 [FA]2 [F^G][FA] | %8
 B2 _B=B [G^c][B,GB] [^CGA]2 |[M:3/4] [DFd]6 |[M:1/4] [EFc][DFB] | %11
[M:4/4] [CFA]2 [CFA][DFB] [EFc] [DFB]2 [EFc] | [CFA]6 [DFB][CFA] | G2 GA B2 _B=B |[M:3/4] G6 | %15
[M:1/4] [DG][DF] |[M:4/4] [CE] [EG]2 [Ec] [Ge]2 [Ec][Ge] | %17
[M:9/8] [Gd] [DGB]2 [B,=FG] [CEc]2- [CEc] z A[Q:1/4=89][Q:1/4=86][Q:1/4=83][Q:1/4=81][Q:1/4=78][Q:1/4=75][Q:1/4=72] | %18
[M:19/16] B-<BdedB/-B/-B-<B[CFA]3/2 |[M:3/4] [B,G]6 |] %20
V:2
 z4 z2 [G,B,][G,CG] | [G,DG] [G,DG]2 [G,^CG] [G,DG] [G,B,G]2 [G,DG] | %2
 [A,DF]2 [G,DG]2[K:bass] [D,D]2 [D,C][D,C] | [D,A,] [D,A,]2 [D,^G,] [D,G,] [D,C]2 [D,A,] | %4
[M:3/4] [D,A,]2 [F,D]2[K:treble] [G,DG]2 |[M:1/4] [G,B,][G,CG] | %6
[M:4/4] [G,DG] [G,DG]2 [G,^CG] [G,DG] [G,B,G]2 [G,DG] | [A,DF]2 [G,DG]2[K:bass] [D,D]2 [D,D][D,D] | %8
 [G,DG]2 [G,^CG][G,DG][K:bass] [E,A,]E, E,2 |[M:3/4] D,6 |[M:1/4] D,D, | %11
[M:4/4] D,2 D,D, D, D,2 D, | D,6 D,D, | [G,B,]2 [G,B,][K:treble][G,CG] [G,DG]2 [G,^CG][G,DG] | %14
[M:3/4] [G,B,]6 |[M:1/4][K:bass] [B,,G,][B,,G,] |[M:4/4] [C,G,] [C,C]2 [C,G,] [C,C]2 [C,G,][C,C] | %17
[M:9/8] [G,B,] G,2 G, C,2- C,[K:treble]G=F |[M:19/16] G-<GBcBG/-G/-G-<G[K:bass]D,3/2 | %19
[M:3/4] G,6 |] %20

